assets/icons/appliance.svg

<?xml version="1.0" encoding="UTF-8" standalone="no"?>
<svg viewBox="0 0 24 24" height="24" id="svg7384" version="1.1" width="24" sodipodi:docname="appliance.svg" inkscape:version="1.1.2 (08b2f3d93c, 2022-04-05)"
   xmlns:inkscape="http://www.inkscape.org/namespaces/inkscape"
   xmlns:sodipodi="http://sodipodi.sourceforge.net/DTD/sodipodi-0.dtd"
   xmlns="http://www.w3.org/2000/svg"
   xmlns:svg="http://www.w3.org/2000/svg"
   xmlns:rdf="http://www.w3.org/1999/02/22-rdf-syntax-ns#"
   xmlns:cc="http://creativecommons.org/ns#"
   xmlns:dc="http://purl.org/dc/elements/1.1/">
   <sodipodi:namedview id="namedview40" pagecolor="#ffffff" bordercolor="#666666" borderopacity="1.0" inkscape:pageshadow="2" inkscape:pageopacity="0.0" inkscape:pagecheckerboard="0" showgrid="true" inkscape:zoom="2.1296068" inkscape:cx="-65.035481" inkscape:cy="99.079325" inkscape:window-width="1920" inkscape:window-height="1043" inkscape:window-x="1920" inkscape:window-y="0" inkscape:window-maximized="1" inkscape:current-layer="svg7384">
      <inkscape:grid type="xygrid" id="grid42" />
   </sodipodi:namedview>
   <metadata id="metadata20854">
      <rdf:RDF>
         <cc:Work rdf:about="">
            <dc:format>image/svg+xml</dc:format>
            <dc:type rdf:resource="http://purl.org/dc/dcmitype/StillImage" />
         </cc:Work>
      </rdf:RDF>
   </metadata>
   <defs id="defs7386">
      <linearGradient id="linearGradient5606" inkscape:swatch="solid">
         <stop id="stop5608" offset="0" style="stop-color:#000000;stop-opacity:1;" />
      </linearGradient>
      <linearGradient id="linearGradient4526" inkscape:swatch="solid">
         <stop id="stop4528" offset="0" style="stop-color:#ffffff;stop-opacity:1;" />
      </linearGradient>
      <linearGradient id="linearGradient3600-4" inkscape:swatch="gradient">
         <stop id="stop3602-7" offset="0" style="stop-color:#f4f4f4;stop-opacity:1" />
         <stop id="stop3604-6" offset="1" style="stop-color:#dbdbdb;stop-opacity:1" />
      </linearGradient>
   </defs>
   <path id="path1065" style="fill:#808080;fill-rule:evenodd;stroke-width:2;stroke-linecap:square;stroke-linejoin:round" d="M 3.5 2 A 1.5 1.5 0 0 0 2 3.5 A 1.5 1.5 0 0 0 3 4.9101562 L 3 19.089844 A 1.5 1.5 0 0 0 2 20.5 A 1.5 1.5 0 0 0 3.5 22 A 1.5 1.5 0 0 0 4.9101562 21 L 19.089844 21 A 1.5 1.5 0 0 0 20.5 22 A 1.5 1.5 0 0 0 22 20.5 A 1.5 1.5 0 0 0 21 19.085938 L 21 4.9101562 A 1.5 1.5 0 0 0 22 3.5 A 1.5 1.5 0 0 0 20.5 2 A 1.5 1.5 0 0 0 19.089844 3 L 4.9140625 3 A 1.5 1.5 0 0 0 3.5 2 z M 4.9101562 4 L 19.089844 4 A 1.5 1.5 0 0 0 19.146484 4.1464844 L 17.146484 6.1464844 A 1.5 1.5 0 0 0 16.5 6 A 1.5 1.5 0 0 0 15.089844 7 L 8.9140625 7 A 1.5 1.5 0 0 0 7.5 6 A 1.5 1.5 0 0 0 6.8535156 6.1464844 L 4.8535156 4.1464844 A 1.5 1.5 0 0 0 4.9101562 4 z M 4.1464844 4.8535156 L 6.1464844 6.8535156 A 1.5 1.5 0 0 0 6 7.5 A 1.5 1.5 0 0 0 7 8.9101562 L 7 15.089844 A 1.5 1.5 0 0 0 6 16.5 A 1.5 1.5 0 0 0 6.1464844 17.146484 L 4.1464844 19.146484 A 1.5 1.5 0 0 0 4 19.085938 L 4 4.9101562 A 1.5 1.5 0 0 0 4.1464844 4.8535156 z M 19.853516 4.8535156 A 1.5 1.5 0 0 0 20 4.9101562 L 20 19.089844 A 1.5 1.5 0 0 0 19.853516 19.146484 L 17.853516 17.146484 A 1.5 1.5 0 0 0 18 16.5 A 1.5 1.5 0 0 0 17 15.085938 L 17 8.9101562 A 1.5 1.5 0 0 0 18 7.5 A 1.5 1.5 0 0 0 17.853516 6.8535156 L 19.853516 4.8535156 z M 8.9101562 8 L 15.089844 8 A 1.5 1.5 0 0 0 16 8.9101562 L 16 15.089844 A 1.5 1.5 0 0 0 15.089844 16 L 8.9140625 16 A 1.5 1.5 0 0 0 8 15.085938 L 8 8.9101562 A 1.5 1.5 0 0 0 8.9101562 8 z M 8.9101562 17 L 15.089844 17 A 1.5 1.5 0 0 0 16.5 18 A 1.5 1.5 0 0 0 17.146484 17.853516 L 19.146484 19.853516 A 1.5 1.5 0 0 0 19.089844 20 L 4.9140625 20 A 1.5 1.5 0 0 0 4.8535156 19.853516 L 6.8535156 17.853516 A 1.5 1.5 0 0 0 7.5 18 A 1.5 1.5 0 0 0 8.9101562 17 z " />
</svg>

<svg height="24" width="24" xmlns="http://www.w3.org/2000/svg"><path style="fill:gray;stroke-width:2;stroke-linecap:square;stroke-linejoin:round" d="M3.5 2A1.5 1.5 0 0 0 2 3.5a1.5 1.5 0 0 0 1 1.41v14.18a1.5 1.5 0 0 0-1 1.41A1.5 1.5 0 0 0 3.5 22a1.5 1.5 0 0 0 1.41-1h14.18a1.5 1.5 0 0 0 1.41 1 1.5 1.5 0 0 0 1.5-1.5 1.5 1.5 0 0 0-1-1.414V4.91a1.5 1.5 0 0 0 1-1.41A1.5 1.5 0 0 0 20.5 2a1.5 1.5 0 0 0-1.41 1H4.914A1.5 1.5 0 0 0 3.5 2zm1.41 2h14.18a1.5 1.5 0 0 0 .056.146l-2 2A1.5 1.5 0 0 0 16.5 6a1.5 1.5 0 0 0-1.41 1H8.914A1.5 1.5 0 0 0 7.5 6a1.5 1.5 0 0 0-.646.146l-2-2A1.5 1.5 0 0 0 4.91 4zm-.764.854 2 2A1.5 1.5 0 0 0 6 7.5a1.5 1.5 0 0 0 1 1.41v6.18a1.5 1.5 0 0 0-1 1.41 1.5 1.5 0 0 0 .146.646l-2 2a1.5 1.5 0 0 0-.146-.06V4.91a1.5 1.5 0 0 0 .146-.056zm15.708 0A1.5 1.5 0 0 0 20 4.91v14.18a1.5 1.5 0 0 0-.146.056l-2-2A1.5 1.5 0 0 0 18 16.5a1.5 1.5 0 0 0-1-1.414V8.91a1.5 1.5 0 0 0 1-1.41 1.5 1.5 0 0 0-.146-.646l2-2zM8.91 8h6.18a1.5 1.5 0 0 0 .91.91v6.18a1.5 1.5 0 0 0-.91.91H8.914A1.5 1.5 0 0 0 8 15.086V8.91A1.5 1.5 0 0 0 8.91 8zm0 9h6.18a1.5 1.5 0 0 0 1.41 1 1.5 1.5 0 0 0 .646-.146l2 2a1.5 1.5 0 0 0-.056.146H4.914a1.5 1.5 0 0 0-.06-.146l2-2A1.5 1.5 0 0 0 7.5 18a1.5 1.5 0 0 0 1.41-1z"/></svg>
